pro/src/icons/full-wait.svg

<svg width="48" height="48" viewBox="0 0 48 48" fill="none" xmlns="http://www.w3.org/2000/svg">
<path id="icon" fill-rule="evenodd" clip-rule="evenodd" d="M24 44C35.0457 44 44 35.0457 44 24C44 12.9543 35.0457 4 24 4C12.9543 4 4 12.9543 4 24C4 35.0457 12.9543 44 24 44ZM24 9.79639C25.0794 9.79639 25.9545 10.6715 25.9545 11.7509V23.1904L31.1093 28.3452C31.8726 29.1085 31.8726 30.3461 31.1093 31.1094C30.346 31.8727 29.1085 31.8727 28.3452 31.1094L22.6179 25.3821C22.2513 25.0155 22.0454 24.5184 22.0454 24V11.7509C22.0454 10.6715 22.9205 9.79639 24 9.79639Z" fill="currentColor"/>
</svg>

<svg xmlns="http://www.w3.org/2000/svg" width="48" height="48" fill="none"><path id="icon" fill="currentColor" fill-rule="evenodd" d="M24 44c11.046 0 20-8.954 20-20S35.046 4 24 4 4 12.954 4 24s8.954 20 20 20m0-34.204c1.08 0 1.954.876 1.954 1.955v11.44l5.155 5.154a1.955 1.955 0 0 1-2.764 2.764l-5.727-5.727A1.95 1.95 0 0 1 22.045 24V11.75c0-1.078.875-1.954 1.955-1.954" clip-rule="evenodd"/></svg>
